brandFactory_export/1.Light/Interes me gusta_1Light.svg

<?xml version="1.0" encoding="UTF-8"?>
<svg width="24px" height="24px" viewBox="0 0 24 24" version="1.1" xmlns="http://www.w3.org/2000/svg" xmlns:xlink="http://www.w3.org/1999/xlink">
    <title>1.Light/Interes me gusta_1Light</title>
    <g id="Symbols" stroke="none" stroke-width="1" fill="none" fill-rule="evenodd">
        <g id="1.Light/Interes-me-gusta_1Light" fill="#5CB615" fill-rule="nonzero">
            <path d="M22.6386555,15.389916 L22.6386555,4.64033613 C22.6386555,3.16470588 21.3915966,1.96134454 19.8588235,1.96134454 L3.76470588,1.96134454 C2.23193277,1.96134454 0.981512605,3.16470588 0.981512605,4.64033613 L0.981512605,15.389916 C0.981512605,16.6840336 1.85546218,17.7630252 3.10588235,18.0117647 C3.33781513,18.0588235 3.49915966,18.2537815 3.49915966,18.4789916 L3.49915966,21.0806723 C3.49915966,21.4033613 3.83193277,21.712605 4.18823529,21.712605 C4.30588235,21.712605 4.54789916,21.712605 4.79327731,21.3966387 L7.33445378,18.2504202 C7.42857143,18.1361345 7.5697479,18.0689076 7.72436975,18.0689076 L19.8554622,18.0689076 C21.3915966,18.0655462 22.6386555,16.8655462 22.6386555,15.389916 Z M19.8588235,1.01008403 C21.9327731,1.01008403 23.6235294,2.63697479 23.6235294,4.64033613 L23.6235294,15.389916 C23.6235294,17.389916 21.9327731,19.0201681 19.8588235,19.0201681 L7.9697479,19.0201681 L5.57983193,21.9747899 C5.2302521,22.4319328 4.75966387,22.6638655 4.19159664,22.6638655 C3.28403361,22.6638655 2.51764706,21.9378151 2.51764706,21.0806723 L2.51764706,18.8453782 C1.01512605,18.3747899 0,17.0033613 0,15.389916 L0,4.64033613 C0,2.63697479 1.6907563,1.01008403 3.76470588,1.01008403 L19.8588235,1.01008403 Z M15.1495798,8.67731092 C15.2436975,8.29411765 15.3344538,7.59159664 14.8840336,7.21512605 C14.6823529,7.05042017 14.389916,6.94621849 14.0672269,6.92941176 L13.9764706,6.92605042 C13.6201681,6.92605042 13.2436975,7.02689076 12.8941176,7.21512605 C12.7159664,7.3092437 12.5310924,7.41344538 12.3327731,7.52773109 C12.1378151,7.63193277 11.9529412,7.6789916 11.7647059,7.6789916 C11.5697479,7.6789916 11.3781513,7.63193277 11.210084,7.53781513 C10.9915966,7.41344538 10.810084,7.31260504 10.6319328,7.21512605 C10.2789916,7.02689076 9.90588235,6.92605042 9.54957983,6.92605042 L9.45546218,6.92941176 C9.1394958,6.94621849 8.84033613,7.04705882 8.64201681,7.21512605 C8.18823529,7.59159664 8.2789916,8.29411765 8.3697479,8.67731092 C8.57478992,9.51764706 8.98487395,10.3983193 9.57983193,11.2957983 C10.0705882,12.0319328 10.4470588,12.4857143 11.1193277,13.1613445 C11.2369748,13.2789916 11.4016807,13.4302521 11.5058824,13.5008403 C11.5731092,13.5445378 11.6436975,13.5815126 11.7142857,13.594958 L11.7243697,13.594958 L11.7647059,13.6016807 C11.8756303,13.5815126 11.9462185,13.5478992 12.0134454,13.5042017 C12.1109244,13.4369748 12.2621849,13.302521 12.3764706,13.1882353 L12.3798319,13.1815126 L12.4134454,13.1478992 C13.0756303,12.4823529 13.4453782,12.0352941 13.9361345,11.2991597 C14.5378151,10.3983193 14.9445378,9.51764706 15.1495798,8.67731092 L15.1495798,8.67731092 Z M14.1210084,5.98151261 C14.6588235,6.00840336 15.1596639,6.18991597 15.5260504,6.49243697 C16.1579832,7.01680672 16.3630252,7.87058824 16.1109244,8.89579832 C15.8789916,9.84033613 15.4252101,10.8218487 14.7697479,11.810084 C14.2487395,12.5966387 13.8285714,13.1008403 13.1226891,13.8067227 C13.1193277,13.8134454 13.112605,13.8201681 13.1092437,13.8235294 C13.0386555,13.8941176 12.7966387,14.1327731 12.5882353,14.2739496 C12.4134454,14.3983193 12.2117647,14.4857143 12.0134454,14.5260504 C11.9563025,14.5394958 11.8957983,14.5462185 11.8319328,14.5495798 L11.8252101,14.5495798 C11.8084034,14.5529412 11.7915966,14.5529412 11.7714286,14.5529412 L11.7512605,14.5529412 C11.7310924,14.5529412 11.7176471,14.5529412 11.697479,14.5495798 L11.6941176,14.5495798 C11.6302521,14.5462185 11.5697479,14.5361345 11.512605,14.5260504 C11.3142857,14.4857143 11.112605,14.394958 10.9344538,14.2739496 C10.7294118,14.1327731 10.487395,13.8941176 10.4168067,13.8235294 C9.70084034,13.107563 9.28067227,12.6 8.75630252,11.810084 C8.10084034,10.8252101 7.65042017,9.84369748 7.41848739,8.89579832 C7.16302521,7.87058824 7.37478992,7.01344538 8.00336134,6.49243697 C8.3697479,6.18991597 8.86722689,6.00504202 9.40840336,5.98151261 C9.45546218,5.97815126 9.50588235,5.97815126 9.55294118,5.97815126 C10.0739496,5.97815126 10.6117647,6.11596639 11.112605,6.38823529 C11.297479,6.48571429 11.4890756,6.59663866 11.697479,6.71428571 C11.7176471,6.72436975 11.7411765,6.73109244 11.7680672,6.73109244 C11.7915966,6.73109244 11.8117647,6.72436975 11.8352941,6.71428571 C12.0436975,6.59663866 12.2352941,6.48907563 12.4235294,6.38823529 C12.9210084,6.11932773 13.4588235,5.97815126 13.9831933,5.97815126 C14.0235294,5.97815126 14.0705882,5.97815126 14.1210084,5.98151261 L14.1210084,5.98151261 Z" id="Interes-me-gusta_1Light"></path>
        </g>
    </g>
</svg>

<svg width="24" height="24" viewBox="0 0 24 24" xmlns="http://www.w3.org/2000/svg"><path d="M22.639 15.39V4.64c0-1.475-1.247-2.679-2.78-2.679H3.765c-1.533 0-2.783 1.204-2.783 2.68V15.39c0 1.294.873 2.373 2.124 2.622a.48.48 0 01.393.467v2.602c0 .322.333.632.69.632.117 0 .359 0 .604-.316l2.541-3.147a.502.502 0 01.39-.181h12.131c1.537-.003 2.784-1.203 2.784-2.68zm-2.78-14.38c2.074 0 3.765 1.627 3.765 3.63v10.75c0 2-1.691 3.63-3.765 3.63H7.969l-2.39 2.955c-.349.457-.82.689-1.387.689-.908 0-1.674-.726-1.674-1.583v-2.236C1.015 18.375 0 17.003 0 15.39V4.64c0-2.003 1.69-3.63 3.765-3.63h16.094zm-4.71 7.667c.095-.383.185-1.085-.265-1.462-.202-.165-.494-.269-.817-.286l-.09-.003c-.357 0-.733.1-1.083.29-.178.093-.363.197-.561.312a1.18 1.18 0 01-.568.151c-.195 0-.387-.047-.555-.141-.218-.125-.4-.225-.578-.323a2.322 2.322 0 00-1.082-.289l-.095.003c-.316.017-.615.118-.813.286-.454.377-.363 1.08-.272 1.462.205.84.615 1.721 1.21 2.619.49.736.867 1.19 1.54 1.865.117.118.282.27.386.34.067.044.138.08.208.094h.01l.04.007a.63.63 0 00.25-.098c.097-.067.248-.201.362-.316l.004-.006.033-.034c.663-.666 1.032-1.113 1.523-1.849.602-.9 1.009-1.781 1.214-2.622zm-1.028-2.695c.538.026 1.039.208 1.405.51.632.525.837 1.379.585 2.404-.232.944-.686 1.926-1.341 2.914-.521.787-.941 1.29-1.647 1.997l-.014.017c-.07.07-.312.309-.52.45a1.536 1.536 0 01-.576.252 1.03 1.03 0 01-.181.024h-.007c-.017.003-.033.003-.054.003h-.02c-.02 0-.033 0-.054-.003h-.003a1.483 1.483 0 01-.181-.024c-.199-.04-.4-.131-.579-.252a4.373 4.373 0 01-.517-.45C9.7 13.108 9.28 12.6 8.757 11.81 8.1 10.825 7.65 9.844 7.417 8.896c-.255-1.025-.043-1.883.585-2.404.367-.302.864-.487 1.405-.51.047-.004.098-.004.145-.004.52 0 1.059.138 1.56.41.184.098.376.209.584.326.02.01.044.017.071.017a.165.165 0 00.067-.017c.209-.117.4-.225.589-.326a3.297 3.297 0 011.697-.406z" fill="#5CB615" fill-rule="nonzero"/></svg>
